X:107
T:Price
M:3/4
L:1/8
Q:90
C:Daniel Protheroe 1866 - 1934
R:Hymn
K:G
E^D EF GA | G2 F4 | EB BA GF | E6 | E^D EF GA | G2 F4 | EB BA
GF | E4 FF | G2 G2 AA | B2 B2 AG | FE A2 F2 | E6
||
